assets/img/icons/icon-marker.svg

<svg fill="none" height="71" viewBox="0 0 42 71" width="42" xmlns="http://www.w3.org/2000/svg"><path d="m20.4612 70.3123c-1.5872-2.4832-3.072-4.7136-4.464-6.9984-5.8496-9.6224-11.02403-19.5648-14.10883-30.4576-1.564796-5.5232-2.550397-11.12-1.363197-16.896 2.031997-9.91045 8.687997-15.648044 18.793627-15.9456439 8.2592-.2432021 15.0208 2.4959939 19.0272 10.2016439 2.2336 4.2912 3.0688 8.8768 2.5536 13.7088-.5824 5.4848-2.1024 10.7296-4.0704 15.8496-3.9584 10.304-9.2576 19.9136-15.3312 29.1072-.256.3872-.544.752-1.0368 1.4304zm.0736-36.9248c7.4528-.0256 13.408-6.0288 13.344-13.4528-.064-7.3696-6.0128-13.23204-13.4272-13.23204-7.3056 0-13.28963 6.03204-13.27043 13.38884.016 7.3536 6.00643 13.3216 13.35363 13.296z" fill="#bc6e44"/></svg>

<svg width="42" height="71" viewBox="0 0 42 71" fill="none" xmlns="http://www.w3.org/2000/svg">
<path d="M20.4612 70.3123C18.874 67.8291 17.3892 65.5987 15.9972 63.3139C10.1476 53.6915 4.97317 43.7491 1.88837 32.8563C0.323574 27.3331 -0.662027 21.7363 0.525173 15.9603C2.55717 6.04985 9.21317 0.312256 19.3188 0.0146561C27.578 -0.228546 34.3396 2.51065 38.346 10.2163C40.5796 14.5075 41.4148 19.0931 40.8996 23.9251C40.3172 29.4099 38.7972 34.6547 36.8292 39.7747C32.8708 50.0787 27.5716 59.6883 21.498 68.8819C21.242 69.2691 20.954 69.6339 20.4612 70.3123ZM20.5348 33.3875C27.9876 33.3619 33.9428 27.3587 33.8788 19.9347C33.8148 12.5651 27.866 6.70266 20.4516 6.70266C13.146 6.70266 7.16197 12.7347 7.18117 20.0915C7.19717 27.4451 13.1876 33.4131 20.5348 33.3875Z" fill="#BC6E44"/>
</svg>
